images/c-nose-m.svg

<svg fill="none" height="101" viewBox="0 0 62 101" width="62" xmlns="http://www.w3.org/2000/svg"><path d="m30.9868 100.445c21.1533 0 30.4661-15.1666 30.4661-33.6591v-66.7859h-19.6898v65.1894c0 13.5701-4.5234 18.2265-13.171 18.2265-5.5876 0-10.7762-3.0599-14.6343-10.2441l-13.437048 9.978c6.518948 11.4414 16.097848 17.2952 30.466048 17.2952z" fill="#a0a9b7"/></svg>

<svg width="62" height="101" viewBox="0 0 62 101" fill="none" xmlns="http://www.w3.org/2000/svg">
<path d="M30.9868 100.445C52.1401 100.445 61.4529 85.2784 61.4529 66.7859V0H41.7631V65.1894C41.7631 78.7595 37.2397 83.4159 28.5921 83.4159C23.0045 83.4159 17.8159 80.356 13.9578 73.1718L0.520752 83.1498C7.0397 94.5912 16.6186 100.445 30.9868 100.445Z" fill="#A0A9B7"/>
</svg>
